X:345
T:Mountain Top, The
S:Padraig O'Keeffe MS, via 'Music from Sliabh Luachra'
R:Reel
Z:Nigel Gatherer
L:1/8
M:4/4
K:G
A|:BGAG (3EFE (3DEF|G2 Bd edgd|BGAG E2 AB|cBAc BGGA:|
Bd (3ddd ed (3ddd|Bdef gfed|Bd (3ddd edgd|(3BcB Ad BGGA|
Bd (3ddd ed (3ddd|(3Bcd ef g2 ga|baaf gfed|(3efg af gfed|]
<end>
<start>
